svgs/sharp-light/user-doctor-hair.svg

<svg xmlns="http://www.w3.org/2000/svg" viewBox="0 0 448 512"><!--! Font Awesome Pro 6.6.0 by @fontawesome - https://fontawesome.com License - https://fontawesome.com/license (Commercial License) Copyright 2024 Fonticons, Inc. --><path d="M320 144l0-16c0-5.5-.5-10.8-1.3-16L272 112l-3.8 0-3.4-1.7-20.1-10-16 21.3L224 128l-8 0-88 0 0 16c0 53 43 96 96 96s96-43 96-96zM224 32c-41.8 0-77.4 26.7-90.5 64L208 96l19.2-25.6 8-10.7 11.9 6L275.8 80l31.4 0C290.6 51.3 259.5 32 224 32zm0-32c70.7 0 128 57.3 128 128l0 16c0 70.7-57.3 128-128 128s-128-57.3-128-128l0-16C96 57.3 153.3 0 224 0zM43.3 480l361.3 0L360.4 336 320 336l0 34.3c23.1 6.9 40 28.3 40 53.7l0 24 0 16-16 0-16 0-16 0 0-32 16 0 0-8c0-13.3-10.7-24-24-24s-24 10.7-24 24l0 8 16 0 0 32-16 0-16 0-16 0 0-16 0-24c0-25.4 16.9-46.8 40-53.7l0-34.3-112 0 0 34.7c18.6 6.6 32 24.4 32 45.3c0 26.5-21.5 48-48 48s-48-21.5-48-48c0-20.9 13.4-38.7 32-45.3l0-34.7-56.4 0L43.3 480zM144 416a16 16 0 1 0 32 0 16 16 0 1 0 -32 0zM64 304l320 0 54.2 176 9.8 32-33.5 0-381 0L0 512l9.8-32L64 304z"/></svg>

<svg xmlns="http://www.w3.org/2000/svg" viewBox="0 0 448 512"><!--! Font Awesome Pro 6.4.0 by @fontawesome - https://fontawesome.com License - https://fontawesome.com/license (Commercial License) Copyright 2023 Fonticons, Inc. --><path d="M320 144V128c0-5.5-.5-10.8-1.3-16H272h-3.8l-3.4-1.7-20.1-10-16 21.3L224 128h-8l-88 0v16c0 53 43 96 96 96s96-43 96-96zM224 32c-41.8 0-77.4 26.7-90.5 64H208l19.2-25.6 8-10.7 11.9 6L275.8 80h31.4C290.6 51.3 259.5 32 224 32zm0-32c70.7 0 128 57.3 128 128v16c0 70.7-57.3 128-128 128s-128-57.3-128-128V128C96 57.3 153.3 0 224 0zM43.3 480H404.7L360.4 336H320v34.3c23.1 6.9 40 28.3 40 53.7v24 16H344 328 312V432h16v-8c0-13.3-10.7-24-24-24s-24 10.7-24 24v8h16v32H280 264 248V448 424c0-25.4 16.9-46.8 40-53.7V336H176v34.7c18.6 6.6 32 24.4 32 45.3c0 26.5-21.5 48-48 48s-48-21.5-48-48c0-20.9 13.4-38.7 32-45.3V336H87.6L43.3 480zM144 416a16 16 0 1 0 32 0 16 16 0 1 0 -32 0zM64 304H384l54.2 176 9.8 32H414.5 33.5 0l9.8-32L64 304z"/></svg>
